assets/svg/icon_block_delete.svg

<svg width="24" height="24" viewBox="0 0 24 24" fill="none" xmlns="http://www.w3.org/2000/svg">
<path d="M20 7.38021C20.4142 7.38021 20.75 7.04442 20.75 6.63021C20.75 6.216 20.4142 5.88021 20 5.88021V7.38021ZM4 5.88021C3.58579 5.88021 3.25 6.216 3.25 6.63021C3.25 7.04442 3.58579 7.38021 4 7.38021V5.88021ZM17.8264 15.0895L17.0782 15.0375V15.0375L17.8264 15.0895ZM18.9951 9.09282C19.0238 8.67961 18.7121 8.32134 18.2989 8.29261C17.8857 8.26389 17.5274 8.57558 17.4987 8.98879L18.9951 9.09282ZM6.49986 8.98879C6.47114 8.57558 6.11287 8.26389 5.69965 8.29261C5.28644 8.32134 4.97475 8.67961 5.00348 9.09282L6.49986 8.98879ZM6.17219 15.0895L6.92038 15.0375L6.17219 15.0895ZM16.7928 19.2905L17.2936 19.8488L16.7928 19.2905ZM7.20579 19.2905L6.70495 19.8488H6.70495L7.20579 19.2905ZM10.4595 11.1549C10.4166 10.7429 10.0478 10.4437 9.63578 10.4867C9.2238 10.5297 8.92466 10.8985 8.96762 11.3104L10.4595 11.1549ZM9.42476 15.6941C9.46773 16.1061 9.83653 16.4052 10.2485 16.3623C10.6605 16.3193 10.9596 15.9505 10.9167 15.5385L9.42476 15.6941ZM15.031 11.3104C15.0739 10.8985 14.7748 10.5297 14.3628 10.4867C13.9508 10.4437 13.582 10.7429 13.539 11.1549L15.031 11.3104ZM13.0819 15.5385C13.0389 15.9505 13.3381 16.3193 13.7501 16.3623C14.162 16.4052 14.5309 16.1061 14.5738 15.6941L13.0819 15.5385ZM14.9062 5.12723L15.6146 4.88098L15.6146 4.88098L14.9062 5.12723ZM14.995 5.38259L14.2865 5.62884L14.2865 5.62885L14.995 5.38259ZM8.54805 5.38259L7.83963 5.13634L7.83963 5.13634L8.54805 5.38259ZM8.63681 5.12723L7.92839 4.88098L7.92839 4.88098L8.63681 5.12723ZM8.51593 5.4732L9.21766 5.73791L9.21767 5.7379L8.51593 5.4732ZM6.84273 6.62965L6.82451 5.87987L6.82451 5.87987L6.84273 6.62965ZM15.0271 5.4732L15.7288 5.20849L15.7288 5.20848L15.0271 5.4732ZM16.7003 6.62965L16.7185 5.87987L16.7185 5.87987L16.7003 6.62965ZM13.7421 4.01645L13.6286 4.75781L13.7421 4.01645ZM14.7423 4.7077L15.4014 4.3498L15.4014 4.34979L14.7423 4.7077ZM9.80086 4.01645L9.68734 3.27509V3.27509L9.80086 4.01645ZM8.80073 4.7077L8.14164 4.34979L8.14164 4.34979L8.80073 4.7077ZM20 5.88021H4V7.38021H20V5.88021ZM11.6458 20.75H12.3528V19.25H11.6458V20.75ZM18.5746 15.1415L18.9951 9.09282L17.4987 8.98879L17.0782 15.0375L18.5746 15.1415ZM5.00348 9.09282L5.42399 15.1415L6.92038 15.0375L6.49986 8.98879L5.00348 9.09282ZM12.3528 20.75C13.5496 20.75 14.5173 20.7514 15.2819 20.6555C16.065 20.5572 16.7386 20.3467 17.2936 19.8488L16.292 18.7322C16.0561 18.9438 15.7261 19.088 15.0952 19.1671C14.4456 19.2486 13.5888 19.25 12.3528 19.25V20.75ZM17.0782 15.0375C16.9958 16.2225 16.9377 17.0352 16.8112 17.6442C16.6897 18.229 16.5238 18.5242 16.292 18.7322L17.2936 19.8488C17.8526 19.3472 18.1227 18.7058 18.2798 17.9494C18.4319 17.2171 18.4951 16.2842 18.5746 15.1415L17.0782 15.0375ZM11.6458 19.25C10.4098 19.25 9.55293 19.2486 8.90341 19.1671C8.27249 19.088 7.94248 18.9438 7.70662 18.7322L6.70495 19.8488C7.25996 20.3467 7.93356 20.5572 8.71672 20.6555C9.48129 20.7514 10.449 20.75 11.6458 20.75V19.25ZM5.42399 15.1415C5.50343 16.2841 5.56666 17.2171 5.71877 17.9494C5.87592 18.7058 6.14593 19.3472 6.70495 19.8488L7.70662 18.7322C7.47478 18.5242 7.3089 18.229 7.18742 17.6442C7.0609 17.0352 7.00277 16.2225 6.92038 15.0375L5.42399 15.1415ZM8.96762 11.3104L9.42476 15.6941L10.9167 15.5385L10.4595 11.1549L8.96762 11.3104ZM13.539 11.1549L13.0819 15.5385L14.5738 15.6941L15.031 11.3104L13.539 11.1549ZM10.2677 4.75H13.2753V3.25H10.2677V4.75ZM14.1978 5.37349L14.2865 5.62884L15.7034 5.13634L15.6146 4.88098L14.1978 5.37349ZM9.25647 5.62885L9.34523 5.37349L7.92839 4.88098L7.83963 5.13634L9.25647 5.62885ZM7.83963 5.13634C7.82206 5.18688 7.81778 5.19901 7.8142 5.20849L9.21767 5.7379C9.22985 5.70561 9.24172 5.67126 9.25647 5.62884L7.83963 5.13634ZM6.74293 7.38021C6.79002 7.38021 6.82647 7.38026 6.86095 7.37943L6.82451 5.87987C6.81266 5.88016 6.79802 5.88021 6.74293 5.88021V7.38021ZM7.8142 5.20849C7.67107 5.58793 7.28712 5.86863 6.82451 5.87987L6.86095 7.37943C7.90406 7.35408 8.84845 6.71669 9.21766 5.73791L7.8142 5.20849ZM14.2865 5.62885C14.3012 5.67091 14.3132 5.70567 14.3253 5.73792L15.7288 5.20848C15.7253 5.19908 15.7209 5.18662 15.7034 5.13633L14.2865 5.62885ZM16.8001 5.88021C16.745 5.88021 16.7303 5.88016 16.7185 5.87987L16.6821 7.37943C16.7165 7.38026 16.753 7.38021 16.8001 7.38021V5.88021ZM14.3253 5.73791C14.6946 6.71669 15.639 7.35408 16.6821 7.37943L16.7185 5.87987C16.2559 5.86863 15.8719 5.58793 15.7288 5.20849L14.3253 5.73791ZM13.2753 4.75C13.5401 4.75 13.5913 4.75209 13.6286 4.75781L13.8557 3.27509C13.6781 3.24791 13.4897 3.25 13.2753 3.25V4.75ZM15.6146 4.88098C15.5476 4.6883 15.4879 4.50915 15.4014 4.3498L14.0832 5.06561C14.0972 5.09134 14.1132 5.13018 14.1978 5.37349L15.6146 4.88098ZM13.6286 4.75781C13.8342 4.7893 13.9988 4.91013 14.0832 5.06561L15.4014 4.34979C15.0848 3.76684 14.5074 3.37489 13.8557 3.27509L13.6286 4.75781ZM10.2677 3.25C10.0533 3.25 9.8649 3.24791 9.68734 3.27509L9.91438 4.75781C9.95172 4.75209 10.0029 4.75 10.2677 4.75V3.25ZM9.34523 5.37349C9.42981 5.13018 9.44585 5.09134 9.45982 5.06561L8.14164 4.34979C8.0551 4.50915 7.99536 4.68832 7.92839 4.88098L9.34523 5.37349ZM9.68734 3.27509C9.03561 3.37489 8.4582 3.76684 8.14164 4.34979L9.45982 5.06561C9.54426 4.91013 9.70876 4.7893 9.91438 4.75781L9.68734 3.27509Z" fill="#0E0E0E"/>
</svg>

<svg xmlns="http://www.w3.org/2000/svg" width="24" height="24" fill="none"><path fill="#0E0E0E" d="M20 7.38a.75.75 0 0 0 0-1.5zM4 5.88a.75.75 0 0 0 0 1.5zm13.826 9.21-.748-.053zm1.17-5.997a.75.75 0 0 0-1.497-.104zM6.5 8.989a.75.75 0 0 0-1.497.104zm-.328 6.1.748-.052zm10.62 4.202.502.558zm-9.586 0-.501.558zm3.254-8.136a.75.75 0 1 0-1.492.155zm-1.035 4.54a.75.75 0 0 0 1.492-.156zm5.606-4.385a.75.75 0 0 0-1.492-.155zm-1.95 4.229a.75.75 0 0 0 1.493.155zm1.825-10.412.709-.246zm.089.256-.708.246zm-6.447 0-.708-.247zm.089-.256-.709-.246zm-.121.346.702.265zM6.843 6.63l-.018-.75zm8.184-1.157.702-.265zM16.7 6.63l.018-.75zm-2.958-2.614-.113.742zm1 .692.66-.358zm-4.941-.692-.114-.74zm-1 .692-.66-.358zM20 5.88H4v1.5h16zm-8.354 14.87h.707v-1.5h-.707zm6.929-5.608.42-6.05L17.5 8.99l-.42 6.048zM5.003 9.092l.421 6.05 1.496-.104-.42-6.05zm7.35 11.658c1.197 0 2.164.001 2.929-.095.783-.098 1.457-.308 2.012-.806l-1.002-1.117c-.236.212-.566.356-1.197.435-.65.082-1.506.083-2.742.083zm4.725-5.712c-.082 1.185-.14 1.997-.267 2.606-.121.585-.287.88-.519 1.088l1.002 1.117c.559-.502.829-1.143.986-1.9.152-.732.215-1.665.295-2.808zm-5.432 4.212c-1.236 0-2.093-.001-2.743-.083-.63-.079-.96-.223-1.196-.435L6.705 19.85c.555.498 1.229.708 2.012.806.764.096 1.732.095 2.929.095zm-6.222-4.108c.08 1.142.143 2.075.295 2.807.157.757.427 1.398.986 1.9l1.002-1.117c-.232-.208-.398-.503-.52-1.088-.126-.609-.184-1.421-.267-2.606zm3.544-3.832.457 4.384 1.492-.155-.457-4.384zm4.571-.155-.457 4.384 1.492.155.457-4.384zM10.268 4.75h3.007v-1.5h-3.007zm3.93.623.088.256 1.417-.493-.088-.255zm-4.942.256.09-.256-1.418-.492-.088.255zM7.84 5.136l-.026.072 1.404.53.038-.11zM6.743 7.38h.118l-.036-1.5h-.082zm1.071-2.172c-.143.38-.527.66-.99.672l.037 1.5c1.043-.026 1.987-.663 2.357-1.642zm6.473.42.038.11 1.404-.53-.026-.072zm2.513.252h-.082l-.036 1.5h.118zm-2.475-.142c.37.979 1.314 1.616 2.357 1.641l.037-1.5c-.463-.01-.847-.291-.99-.67zm-1.05-.988c.265 0 .316.002.354.008l.227-1.483c-.178-.027-.366-.025-.58-.025zm2.34.131c-.067-.193-.127-.372-.214-.531l-1.318.716c.014.025.03.064.115.307zm-1.986-.123a.62.62 0 0 1 .454.308l1.318-.716a2.12 2.12 0 0 0-1.545-1.075zM10.268 3.25c-.215 0-.403-.002-.58.025l.226 1.483c.038-.006.089-.008.354-.008zm-.923 2.123c.085-.243.1-.282.115-.307L8.142 4.35c-.087.16-.147.338-.214.531zm.342-2.098A2.12 2.12 0 0 0 8.142 4.35l1.318.716a.62.62 0 0 1 .454-.308z"/></svg>
